navigator-task/img/icons/iq-dev.svg

<svg width="59" height="17" viewBox="0 0 59 17" fill="none" xmlns="http://www.w3.org/2000/svg">
<g clip-path="url(#clip0)">
<path d="M14.1433 2.86084V10.6588C14.1433 10.7486 14.1033 10.8337 14.0342 10.8909L6.70612 16.9529C6.46132 17.0222 6.46132 17.0222 6.2146 16.7208V3.16178C6.2146 2.99557 6.34908 2.86084 6.51494 2.86084H14.1433Z" fill="#DEDEDE"/>
<path d="M14.1434 2.86084H6.49744C6.31836 2.86084 6.14859 2.94092 6.03449 3.07925L0.0694144 10.3101C-0.0921532 10.506 0.046266 10.8019 0.299851 10.8028L13.842 10.8501C14.0083 10.8507 14.1434 10.7158 14.1434 10.5492V2.86084Z" fill="white"/>
<path d="M21.8574 1.93659C22.3812 1.93659 22.8085 1.48753 22.8085 0.968297C22.8085 0.435034 22.3812 0 21.8574 0C21.3336 0 20.9063 0.435034 20.9063 0.968297C20.9063 1.48753 21.3336 1.93659 21.8574 1.93659ZM21.1131 10.0057H22.6018V2.98909H21.1131V10.0057Z" fill="white"/>
<path d="M29.7888 2.98907V3.99947C29.265 3.25571 28.4517 2.80664 27.3766 2.80664C25.5019 2.80664 23.9443 4.42047 23.9443 6.49742C23.9443 8.58838 25.5019 10.1882 27.3766 10.1882C28.4517 10.1882 29.265 9.73909 29.7888 9.00937V12.8124H31.2775V2.98907H29.7888ZM27.6109 8.74274C26.3703 8.74274 25.433 7.80249 25.433 6.49742C25.433 5.19231 26.3703 4.25206 27.6109 4.25206C28.8515 4.25206 29.7888 5.19231 29.7888 6.49742C29.7888 7.80249 28.8515 8.74274 27.6109 8.74274Z" fill="white"/>
<path d="M41.6414 0.182617V3.98563C41.1178 3.25591 40.3044 2.80685 39.2295 2.80685C37.3548 2.80685 35.7971 4.40666 35.7971 6.49762C35.7971 8.57453 37.3548 10.1884 39.2295 10.1884C40.3044 10.1884 41.1178 9.7393 41.6414 8.99553V10.0059H43.1301V0.182617H41.6414ZM39.4636 8.74294C38.2231 8.74294 37.2858 7.80269 37.2858 6.49762C37.2858 5.19251 38.2231 4.25226 39.4636 4.25226C40.7041 4.25226 41.6414 5.19251 41.6414 6.49762C41.6414 7.80269 40.7041 8.74294 39.4636 8.74294Z" fill="white"/>
<path d="M46.0371 7.14293H51.5229C51.5508 6.94648 51.5782 6.72193 51.5782 6.51143C51.5782 4.49062 50.1723 2.80664 48.1184 2.80664C45.9543 2.80664 44.4793 4.42047 44.4793 6.49742C44.4793 8.60239 45.9543 10.1882 48.2286 10.1882C49.5797 10.1882 50.6135 9.6128 51.2472 8.65853L50.0205 7.92878C49.6899 8.41997 49.0694 8.79888 48.2423 8.79888C47.1399 8.79888 46.2712 8.23754 46.0371 7.14293ZM46.0233 5.90801C46.23 4.85552 46.9881 4.1819 48.1047 4.1819C49.0004 4.1819 49.8691 4.70112 50.0758 5.90801H46.0233Z" fill="white"/>
<path d="M57.2916 2.98926L55.3758 8.32193L53.4459 2.98926H51.8195L54.5075 10.0059H56.2304L58.9184 2.98926H57.2916Z" fill="white"/>
</g>
<defs>
<clipPath id="clip0">
<rect width="59" height="17" fill="white"/>
</clipPath>
</defs>
</svg>

<svg width="59" height="17" fill="none" xmlns="http://www.w3.org/2000/svg"><g clip-path="url(#clip0)"><path d="M14.143 2.86v7.799a.3.3 0 01-.109.232l-7.328 6.062c-.245.07-.245.07-.491-.232V3.16a.3.3 0 01.3-.3h7.628z" fill="#DEDEDE"/><path d="M14.143 2.86H6.497a.6.6 0 00-.463.22L.07 10.31a.301.301 0 00.23.493l13.543.047a.3.3 0 00.301-.3V2.86zm7.714-.923c.524 0 .951-.45.951-.969a.962.962 0 00-.95-.968.962.962 0 00-.952.968c0 .52.428.969.951.969zm-.744 8.069h1.489V2.989h-1.489v7.017zm8.676-7.016V4c-.524-.744-1.337-1.193-2.412-1.193-1.875 0-3.433 1.613-3.433 3.69 0 2.091 1.558 3.691 3.433 3.691 1.075 0 1.888-.449 2.412-1.179v3.803h1.488V2.99H29.79zM27.61 8.742c-1.24 0-2.178-.94-2.178-2.246 0-1.305.937-2.245 2.178-2.245 1.24 0 2.178.94 2.178 2.245 0 1.305-.938 2.246-2.178 2.246zM41.641.183v3.803c-.523-.73-1.337-1.18-2.411-1.18-1.875 0-3.433 1.6-3.433 3.692 0 2.077 1.558 3.69 3.433 3.69 1.074 0 1.888-.449 2.411-1.192v1.01h1.49V.183h-1.49zm-2.177 8.56c-1.24 0-2.178-.94-2.178-2.245 0-1.305.937-2.246 2.178-2.246 1.24 0 2.177.94 2.177 2.246 0 1.305-.937 2.245-2.177 2.245zm6.573-1.6h5.486a4.62 4.62 0 00.055-.632c0-2.02-1.406-3.704-3.46-3.704-2.164 0-3.639 1.613-3.639 3.69 0 2.105 1.475 3.691 3.75 3.691 1.35 0 2.385-.575 3.018-1.53l-1.227-.73c-.33.492-.95.87-1.778.87-1.102 0-1.97-.56-2.205-1.655zm-.014-1.235c.207-1.052.965-1.726 2.082-1.726.895 0 1.764.52 1.97 1.726h-4.052zM57.292 2.99l-1.916 5.332-1.93-5.333h-1.627l2.688 7.017h1.723l2.688-7.017h-1.626z" fill="#fff"/></g><defs><clipPath id="clip0"><path fill="#fff" d="M0 0h59v17H0z"/></clipPath></defs></svg>
